packages/elvis-assets-icons/icons/svg/src/play_circle-color.svg

<svg width="24" height="24" viewBox="0 0 24 24" fill="none" xmlns="http://www.w3.org/2000/svg">
<g clip-path="url(#clip0)">
<g filter="url(#filter0_d)">
<path fill-rule="evenodd" clip-rule="evenodd" d="M8.90593 7.36028C9.08578 7.24883 9.29466 7.19326 9.50611 7.20059C9.70207 7.2074 9.89207 7.26795 10.0555 7.3752L17.2372 10.967C17.5554 11.1265 17.8818 11.422 17.8818 11.8612C17.8818 12.3005 17.5557 12.5958 17.2375 12.7553L10.0554 16.3463C9.8921 16.4534 9.70228 16.5139 9.50651 16.5207C9.29528 16.5281 9.0866 16.4727 8.90685 16.3615C8.7271 16.2503 8.58435 16.0883 8.49663 15.896C8.41536 15.7179 8.38471 15.5211 8.40756 15.3273V8.39564C8.38442 8.20178 8.41479 8.00495 8.49581 7.82666C8.58335 7.63404 8.72608 7.47173 8.90593 7.36028Z" fill="black"/>
</g>
<path fill-rule="evenodd" clip-rule="evenodd" d="M12 1.7561C6.34245 1.7561 1.7561 6.34245 1.7561 12C1.7561 17.6576 6.34245 22.2439 12 22.2439C17.6576 22.2439 22.2439 17.6576 22.2439 12C22.2439 6.34245 17.6576 1.7561 12 1.7561ZM0 12C0 5.37258 5.37258 0 12 0C18.6274 0 24 5.37258 24 12C24 18.6274 18.6274 24 12 24C5.37258 24 0 18.6274 0 12Z" fill="#29D305"/>
</g>
<defs>
<filter id="filter0_d" x="-21.6" y="-22.8" width="69.4818" height="69.3214" filterUnits="userSpaceOnUse" color-interpolation-filters="sRGB">
<feFlood flood-opacity="0" result="BackgroundImageFix"/>
<feColorMatrix in="SourceAlpha" type="matrix" values="0 0 0 0 0 0 0 0 0 0 0 0 0 0 0 0 0 0 127 0"/>
<feOffset/>
<feGaussianBlur stdDeviation="15"/>
<feColorMatrix type="matrix" values="0 0 0 0 0 0 0 0 0 0 0 0 0 0 0 0 0 0 0.08 0"/>
<feBlend mode="normal" in2="BackgroundImageFix" result="effect1_dropShadow"/>
<feBlend mode="normal" in="SourceGraphic" in2="effect1_dropShadow" result="shape"/>
</filter>
<clipPath id="clip0">
<rect width="24" height="24" fill="white"/>
</clipPath>
</defs>
</svg>

<svg width="24" height="24" fill="none" xmlns="http://www.w3.org/2000/svg"><g clip-path="url(#clip0)"><g filter="url(#filter0_d)"><path fill-rule="evenodd" clip-rule="evenodd" d="M8.906 7.36a1.07 1.07 0 011.15.015l7.181 3.592c.318.16.645.455.645.894 0 .44-.326.735-.645.894l-7.182 3.591a1.069 1.069 0 01-1.647-1.019V8.396a1.07 1.07 0 01.498-1.036z" fill="#000"/></g><path fill-rule="evenodd" clip-rule="evenodd" d="M12 1.756C6.342 1.756 1.756 6.342 1.756 12c0 5.658 4.586 10.244 10.244 10.244 5.658 0 10.244-4.586 10.244-10.244 0-5.658-4.586-10.244-10.244-10.244zM0 12C0 5.373 5.373 0 12 0s12 5.373 12 12-5.373 12-12 12S0 18.627 0 12z" fill="#29D305"/></g><defs><clipPath id="clip0"><path fill="#fff" d="M0 0h24v24H0z"/></clipPath><filter id="filter0_d" x="-21.6" y="-22.8" width="69.482" height="69.321" filterUnits="userSpaceOnUse" color-interpolation-filters="sRGB"><feFlood flood-opacity="0" result="BackgroundImageFix"/><feColorMatrix in="SourceAlpha" values="0 0 0 0 0 0 0 0 0 0 0 0 0 0 0 0 0 0 127 0"/><feOffset/><feGaussianBlur stdDeviation="15"/><feColorMatrix values="0 0 0 0 0 0 0 0 0 0 0 0 0 0 0 0 0 0 0.08 0"/><feBlend in2="BackgroundImageFix" result="effect1_dropShadow"/><feBlend in="SourceGraphic" in2="effect1_dropShadow" result="shape"/></filter></defs></svg>
